X: 26855
T: Mind Your Leg Of The Train Maid Anne
R: slide
M: 12/8
K: Gmajor
|:G3 GBA G2E EDE|A2A ABA F2D DEF|
GFG BAB def gfe|1 d2 B ABA G2E EDE:|2 d2B ABA G2E E2e||
|:d2B BAB d2B B2e|d2B ABA G2E E2e|
d2B BAB def gfe|1 d2B ABA G2E E2e:|2 d2B ABA G2E EDE||

